!!!!SEGMENT: pl-kk--kk-i-7--097_anonim--stabat-mater.krn
!!!cenid: 16xx:936
!!!COM: Anonim
!!!COM-rismid: pe30004985
!!!CDT:
!!!CNT:
!!!OTL: Stabat Mater
!!!PDT:
!!!AGN: Sacred
!!!SMS-siglum: PL-Kk
!!!SMS-shelfmark: Kk.I.7
!!!SMS-shelfwork: 097 W
!!!SMS-variant:
!!!SMS-altvar:
!!!NIFC-rismid: 300258174
!!!URL-scan: http://repozytorium.nifc.pl/skany/pl-kk-nut--i-7
!!!ONB-nifc: UWAGA: C (skan 0076 , s.144), A (0154, s.128), T(0241, s.144), B(0328). Następny utwór: Insignis mater incarnati Dei
!!!AIN: 1 alto 1 bass 1 soprn 1 tenor
!!!key:
**kern	**text	**kern	**text	**kern	**text	**kern	**text
*part4	*part4	*part3	*part3	*part2	*part2	*part1	*part1
*staff4	*staff4	*staff3	*staff3	*staff2	*staff2	*staff1	*staff1
*Ialto	*	*Itenor	*	*Ibass	*	*Isoprn	*
*I"ALTVS.	*	*I"TENOR.	*	*I"BASSVS.	*	*I"CANTVS.	*
*I'A.	*	*I'T	*	*I'B.	*	*I'S	*
*clefF4	*	*clefC4	*	*clefC3	*	*clefC1	*
*k[b-e-]	*	*k[b-e-]	*	*k[b-e-]	*	*k[b-e-]	*
*g:	*	*g:	*	*g:	*	*g:	*
*M3/4	*	*M3/4	*	*M3/4	*	*M3/4	*
=1	=1	=1	=1	=1	=1	=1	=1
*	*	*2\right	*	*2\right	*	*2\right	*
!LO:TX:t=P:problem=w głosie A wpisana partia B	!	!	!	!LO:TX:a:i:t=adagio	!	!	!
!LO:TX:a:i:t=Adagio	!	!	!	!LO:TX:t=P:problem=w głosie B wpisana partia A	!	!LO:TX:a:i:t=adagio	!
8G\L	Sta-	2.d\	Sta-	2.g\	Sta-	2.b-\	Sta-
8GG/J	.	.	.	.	.	.	.
8BB-/L	.	.	.	.	.	.	.
8D/J	.	.	.	.	.	.	.
4G\	-bat	.	.	.	.	.	.
=2	=2	=2	=2	=2	=2	=2	=2
4D\	Sta-	2.d\	-bat	2.f#X\	-bat	2.a\	-bat
4F#X\	.	.	.	.	.	.	.
4D\	-bat	.	.	.	.	.	.
=3	=3	=3	=3	=3	=3	=3	=3
8D\L	Ma-	2.d\	Ma-	2.a\	Ma-	2.cc\	Ma-
!LO:SIC:v:s=8F#	!	!	!	!	!	!	!
8F\	.	.	.	.	.	.	.
8A\	.	.	.	.	.	.	.
8c\	.	.	.	.	.	.	.
8A\	.	.	.	.	.	.	.
!LO:SIC:v:s=8F#	!	!	!	!	!	!	!
8F\J	.	.	.	.	.	.	.
=4	=4	=4	=4	=4	=4	=4	=4
8G\L	.	2.d\	-ter	2.g\	-ter	2.b-\	-ter
8B-\	.	.	.	.	.	.	.
8G\	.	.	.	.	.	.	.
8D\J	.	.	.	.	.	.	.
8BB-/L	-ter	.	.	.	.	.	.
8GG/J	.	.	.	.	.	.	.
=5	=5	=5	=5	=5	=5	=5	=5
4G\	do-	4B-\	do-	4b-\	do-	4dd\	do-
4F#X\	.	4c\	.	4a\	.	4cc\	.
4G\	-lo-	4d\	-lo-	4g\	-lo-	4b-\	-lo-
=6	=6	=6	=6	=6	=6	=6	=6
4D\	-ro-	4d\	-ro-	4g\	-ro-	4b-\	-ro-
4D\	-sa	4d\	-sa	4f#X\	-sa	4a\	-sa
4r	.	4r	.	4r	.	4r	.
=7	=7	=7	=7	=7	=7	=7	=7
!LO:LB:g=original	!	!	!	!	!	!	!
8BB-/L	jux-	2B-\	jux-	4b-\	jux-	4dd\	jux-
8D/J	.	.	.	.	.	.	.
4BB-/	.	.	.	8fn\L	.	8dd\L	.
.	.	.	.	8g\J	.	8ee-\J	.
4BB-/	-ta	4B-\	-ta	8f\L	-ta	8dd\L	-ta
.	.	.	.	8e-\J	.	8cc\J	.
=8	=8	=8	=8	=8	=8	=8	=8
4AA/	cru-	4F/	cru-	4e-\	cru-	4cc\	cru-
4BB-/	-cem	4F/	-cem	4d\	-cem	4b-\	-cem
4r	.	4r	.	4r	.	4r	.
=9	=9	=9	=9	=9	=9	=9	=9
*2\right	*	*	*	*	*	*	*
!	!	!LO:LB:g=original	!	!LO:LB:g=original	!	!	!
2F\	la-	4c\	la-	4c\	la-	4a\	la-
.	.	4B-\	.	4d\	.	4b-\	.
4F\	-chry-	4A\	-chry-	4e-\	-chry-	4cc\	-chry-
=10	=10	=10	=10	=10	=10	=10	=10
4F\	-mo-	4F/	-mo-	4e-\	-mo-	4cc\	-mo-
4BB-/	-sa	4F/	-sa	4d\	-sa	4b-\	-sa
4r	.	4r	.	4r	.	4r	.
=11	=11	=11	=11	=11	=11	=11	=11
8D\L	dum	2c\	dum	2f#X\	dum	2cc\	dum
8F#X\	.	.	.	.	.	.	.
8A\	.	.	.	.	.	.	.
8F#\J	.	.	.	.	.	.	.
8D\L	pen-	4c\	pen-	4a\	pen-	4cc\	pen-
8F#\J	.	.	.	.	.	.	.
=12	=12	=12	=12	=12	=12	=12	=12
4G\	-de-	4B-\	-de-	4b-\	-de-	4dd\	-de-
4A\	.	4c\	.	4a\	.	4cc\	.
4B-\	-bat	4B-\	-bat	4g\	-bat	4b-\	-bat
=13	=13	=13	=13	=13	=13	=13	=13
!LO:LB:g=original	!	!	!	!	!	!	!
4c\	fi-	4A/	fi-	4a\	fi-	4cc\	fi-
4d\	.	4G/	.	4g\	.	4b-\	.
4D/	-li-	4F#X/	-li-	4f#X\	-li-	4a\	-li-
=14	=14	=14	=14	=14	=14	=14	=14
2E-X;\	-us	2A;/	-us	2f#;\	-us	2.cc;\	-us
4r	.	4r	.	4r	.	.	.
=15	=15	=15	=15	=15	=15	=15	=15
!	!	!	!	!	!	!LO:LB:g=original	!
8D\L	dum	2d\	dum	2a\	dum	2cc\	dum
8F#X\	.	.	.	.	.	.	.
8A\	.	.	.	.	.	.	.
8F#\J	.	.	.	.	.	.	.
8D\L	pen-	4c\	pen-	4cc\	pen-	4ee-\	pen-
8F#\J	.	.	.	.	.	.	.
=16	=16	=16	=16	=16	=16	=16	=16
!	!	!	!	!LO:LB:g=original	!	!	!
4G\	-de-	4B-\	-de-	4b-\	-de-	4dd\	-de-
4A\	.	4e-\	.	4a\	.	4cc\	.
4B-\	bat	4d\	-bat	4g\	-bat	4b-\	-bat
=17	=17	=17	=17	=17	=17	=17	=17
4c\	fi-	4e-\	fi-	4a\	fi-	4cc\	fi-
4d\	.	4d\	.	4g\	.	4b-\	.
4D/	-li-	4d\	-li-	4f#X\	-li-	4a\	-li-
=18	=18	=18	=18	=18	=18	=18	=18
2G\	-us	2d\	-us	2g\	-us	2b-\	-us
4r	.	4r	.	4r	.	4r	.
=19|!	=19|!	=19|!	=19|!	=19|!	=19|!	=19|!	=19|!
*M3/4	*	*M3/4	*	*M3/4	*	*M3/4	*
!	!	!	!	!LO:LB:g=original	!	!	!
!LO:LB:g=original	!	!LO:LB:g=original	!	!LO:TX:t=P:problem=tekst w tt.19-22 dopisany ołówkiem	!	!LO:LB:g=original	!
8BB-/L	Cu-	2.B-\	Cu-	2.fn\	Cu-	2.dd\	Cu-
8D/J	.	.	.	.	.	.	.
8F/L	.	.	.	.	.	.	.
8D/J	.	.	.	.	.	.	.
4BB-/	.	.	.	.	.	.	.
=20	=20	=20	=20	=20	=20	=20	=20
8F\L	.	2.c\	-jus	2.f\	-jus	2.ee-\	-jus
8A\	.	.	.	.	.	.	.
8c\	.	.	.	.	.	.	.
8A\J	.	.	.	.	.	.	.
4F\	-jus	.	.	.	.	.	.
=21	=21	=21	=21	=21	=21	=21	=21
8BB-/	a-	8B-\	a-	8f\	a-	8dd\	a-
8BB-/	-ni-	8B-\	-ni-	8f\	-ni-	8dd\	-ni-
4AA/	-mam	4F/	-mam	4e-\	-mam	4cc\	-mam
4BB-/	ge-	4F/	ge-	4d\	ge-	4b-\	ge-
=22	=22	=22	=22	=22	=22	=22	=22
.	.	.	.	16qqe-/LL	.	16qqcc/LL	.
.	.	.	.	16qqd/	.	16qqb-/	.
.	.	.	.	16qqc/	.	16qqa/	.
.	.	.	.	16qqd/JJ	.	16qqb-/JJ	.
4F\	-men-	4F/	-men-	4d\	-men-	4b-\	-men-
4F\	-tem	4F/	-tem	4c\	-tem	4a\	-tem
4r	.	4r	.	4r	.	4r	.
=23	=23	=23	=23	=23	=23	=23	=23
4F\	con-	2A\	con-	2e-\	Con-	2cc\	Con-
4A\	.	.	.	.	.	.	.
4F\	-tris-	4A\	-tris-	4e-\	-tris-	4cc\	-tris-
=24	=24	=24	=24	=24	=24	=24	=24
4B-\	-tan-	2F/	-tan-	4d\	-tan-	4b-\	-tan-
4F\	.	.	.	4e-\	.	4cc\	.
4BB-/	-tem	4B-\	-tem	4f\	-tem	4dd\	-tem
=25	=25	=25	=25	=25	=25	=25	=25
!LO:LB:g=original	!	!	!	!	!	!	!
8BB-/	et	8B-\	et	8f\	et	8dd\	et
8BB-/	do-	8B-\	do-	8f\	do-	8dd\	do-
!	!	!	!	!LO:LB:g=original	!	!	!
4AA/	-len-	2F/	-len-	4e-\	-len-	4cc\	-len-
8BB-/L	.	.	.	4d\	.	4b-\	.
8D/J	.	.	.	.	.	.	.
=26	=26	=26	=26	=26	=26	=26	=26
!	!	!	!	!	!	!LO:LB:g=original	!
2F\	-tem	2F/	-tem	2c/	-tem	2a\	-tem
4r	.	4r	.	4r	.	4r	.
=27	=27	=27	=27	=27	=27	=27	=27
8F\L	per-	2c\	per-	2f\	per-	2ee-\	per-
8A\	.	.	.	.	.	.	.
8c\	.	.	.	.	.	.	.
8A\J	.	.	.	.	.	.	.
8F\L	-tran-	4c\	-tran-	4f\	-tran-	4ee-\	-tran-
8A\J	.	.	.	.	.	.	.
=28	=28	=28	=28	=28	=28	=28	=28
4B-\	-si-	4B-\	-si-	4f\	-si-	4dd\	-si-
4F\	.	4e-\	.	4a\	.	4cc\	.
4BB-/	-vit	4B-\	-vit	4b-\	-vit	4dd\	-vit
=29	=29	=29	=29	=29	=29	=29	=29
4E-\	gla-	8c\L	gla-	4g\	gla-	8ee-\L	gla-
.	.	8B-\J	.	.	.	8dd\J	.
4.F\	.	4.A\	.	4.f\	.	4.cc\	.
8F\	-di-	8A\	-di-	8f\	-di-	8cc\	-di-
=30	=30	=30	=30	=30	=30	=30	=30
2BB-/	-us	2B-\	-us	2f\	-us	2dd\	-us
4r	.	4r	.	4r	.	4r	.
=31	=31	=31	=31	=31	=31	=31	=31
!LO:LB:g=original	!	!	!	!	!	!	!
8F\L	per-	4e-\	per-	2f\	per-	4cc\	per-
8A\	.	.	.	.	.	.	.
8c\	.	4c\	.	.	.	4ee-\	.
8A\J	.	.	.	.	.	.	.
8F\L	-tran-	4e-\	-tran-	4f\	-tran-	4cc\	-tran-
8A\J	.	.	.	.	.	.	.
=32	=32	=32	=32	=32	=32	=32	=32
4B-\	-si-	4B-\	-si-	4f\	-si-	4dd\	-si-
8F\L	.	4e-\	.	4a\	.	4cc\	.
8D\J	.	.	.	.	.	.	.
4BB-/	-vit	4B-\	-vit	4b-\	-vit	4dd\	-vit
=33	=33	=33	=33	=33	=33	=33	=33
!	!	!	!	!LO:LB:g=original	!	!LO:LB:g=original	!
4E-\	gla-	8c\L	gla-	4g\	gla-	8ee-\L	gla-
.	.	8B-\J	.	.	.	8dd\J	.
4.F\	.	4.A\	.	4.f\	.	4.cc\	.
8F\	-di-	8A\	-di-	8f\	-di-	8cc\	-di-
=34	=34	=34	=34	=34	=34	=34	=34
2.BB-/	-us	2.B-\	-us	2f\	-us	2.dd\	-us
.	.	.	.	4r	.	.	.
==	==	==	==	==	==	==	==
*-	*-	*-	*-	*-	*-	*-	*-
!!!system-decoration: [(s1,s2,s3,s4)]
!!!EED: Andrzej Borzym
!!!EEV: 2021-03-20
!!!ENC: Krzysztof Stępień
!!!END: 2021-03-04
